X:45
T:Far Away
R:Waltz
C:Peter Jung
D:Mugar "kabily-touseg" (TEMPO MAKER - MELODIE) 34502-2
Z:As played in Mugar
M:3/4
L:1/8
K:Bm
|: FA| B2 BA Bd | cA F2 FA | B2 BA Be | c4 dc | B2 BA Bd | cB A2 de | fe dc BA|1 B3A :|2 B3 ||
|: cde | f2 fe fa | ec Ac de | f2 fe fa | e4 de | fd Be cA| dB Gd BE | F2 B2 BA |1 B3 :|2 B3 |]
% ----------------------------------------------------------------------------
